!!!CDT:
!!!PTL: ll terzo libro de madrigali a cinque voci, in parte ancor concertati co 'l clavicembalo. Opera decimaottava
!!!PPP: Venice
!!!PPR: Alessandro Vincenti
!!!PDT: 1621
!!!RISM: G 1807
!!!rime:
!!!AGN: Madrigal
!!!SCT: Tsg07020d
!!!SCA: Tsg07020d
!!!voices:
!!!COM: Ghizzolo, Giovanni
!!!OTL: Indi dicea piangendo: "In voi serbate
**kern	**text	**kern	**text	**kern	**text	**kern	**text	**kern	**text	**kern	**text
*part6	*part6	*part5	*part5	*part4	*part4	*part3	*part3	*part2	*part2	*part1	*part1
*staff6	*staff6	*staff5	*staff5	*staff4	*staff4	*staff3	*staff3	*staff2	*staff2	*staff1	*staff1
*I"Basso continuo	*	*I"Basso	*	*I"Quinto	*	*I"Tenore	*	*I"Alto	*	*I"Canto	*
*I'Bc	*	*I'B	*	*I'V	*	*I'T	*	*I'A	*	*I'C	*
*oclefF4	*	*oclefF4	*	*oclefC4	*	*oclefC4	*	*oclefC3	*	*oclefC1	*
*clefF4	*	*clefF4	*	*clefGv2	*	*clefGv2	*	*clefGv2	*	*clefG2	*
*k[b-]	*	*k[b-]	*	*k[b-]	*	*k[b-]	*	*k[b-]	*	*k[b-]	*
*F:	*	*F:	*	*F:	*	*F:	*	*F:	*	*F:	*
*M4/4	*	*M4/4	*	*M4/4	*	*M4/4	*	*M4/4	*	*M4/4	*
*omet(C)	*	*omet(C)	*	*omet(C)	*	*omet(C)	*	*omet(C)	*	*omet(C)	*
=1	=1	=1	=1	=1	=1	=1	=1	=1	=1	=1	=1
!!LO:TX:a:t=[Sopra l'Aria Romanesca. Quarta parte.]
2.B-y	.	4r	.	4r	.	1r	.	2r	.	1r	.
.	.	8B-y	E	8d	E	.	.	.	.	.	.
.	.	8B-y	di-	8d	di-	.	.	.	.	.	.
.	.	4B-y	-cea	[2d	-cea	.	.	4r	.	.	.
4A	.	8.A	la-	.	.	.	.	8f	E	.	.
.	.	.	.	.	.	.	.	8f	di-	.	.
.	.	16G	-gri-	.	.	.	.	.	.	.	.
=2	=2	=2	=2	=2	=2	=2	=2	=2	=2	=2	=2
(2G	.	2B-y	-man-	4d]	.	1r	.	4f	-cea	1r	.
.	.	.	.	8.c	la-	.	.	8e-X	la-	.	.
.	.	.	.	.	.	.	.	8d	-gri-	.	.
.	.	.	.	16B-y	-gri-	.	.	.	.	.	.
2G)	6-	2G	-do:	4.B-y	-man-	.	.	2e-X	-man-	.	.
.	.	.	.	8c	.	.	.	.	.	.	.
=3	=3	=3	=3	=3	=3	=3	=3	=3	=3	=3	=3
2.F	.	1r	.	2A	-do:	4r	.	2c	-do,	1r	.
.	.	.	.	.	.	8f	E	.	.	.	.
.	.	.	.	.	.	8f	di-	.	.	.	.
.	.	.	.	2r	.	4f	-cea	4r	.	.	.
4F	6	.	.	.	.	8e-X	la-	8d	<E	.	.
.	.	.	.	.	.	8d	-gri-	8d	di-	.	.
=4	=4	=4	=4	=4	=4	=4	=4	=4	=4	=4	=4
2G	6-	1r	.	1r	.	2e-X	-man-	4d	-cea	4r	.
.	.	.	.	.	.	.	.	8c	la-	8b-y	E
.	.	.	.	.	.	.	.	8B-y	-gri-	8b-y	di-
2F	.	.	.	.	.	4c	-do:	4c	-man-	4b-y	-cea
.	.	.	.	.	.	4r	.	[4d	.	8.a	la-
.	.	.	.	.	.	.	.	.	.	16g	-gri-
=5	=5	=5	=5	=5	=5	=5	=5	=5	=5	=5	=5
1E-X	.	1r	.	1r	.	1r	.	4d]	.	2.g	-man-
.	.	.	.	.	.	.	.	8cL	.	.	.
.	.	.	.	.	.	.	.	8B-yJ	.	.	.
.	.	.	.	.	.	.	.	2c	.	.	.
.	.	.	.	.	.	.	.	.	.	4a	.
=6	=6	=6	=6	=6	=6	=6	=6	=6	=6	=6	=6
2.D	#	1r	.	1r	.	2r	.	2d	-do:>	2f#X	-do:
.	.	.	.	.	.	8r	.	2r	.	2r	.
.	.	.	.	.	.	8F#X	"In	.	.	.	.
4E-X	.	.	.	.	.	8G	voi	.	.	.	.
.	.	.	.	.	.	8A	ser-	.	.	.	.
=7	=7	=7	=7	=7	=7	=7	=7	=7	=7	=7	=7
4D	.	1r	.	8r	.	8B-yL	-ba-	1r	.	1r	.
.	.	.	.	8F	"In	8AJ	.	.	.	.	.
4C	.	.	.	8G	voi	16B-yL	.	.	.	.	.
.	.	.	.	.	.	16A	.	.	.	.	.
.	.	.	.	8A	ser-	16B-y	.	.	.	.	.
.	.	.	.	.	.	16cJ	.	.	.	.	.
2BB-y	.	.	.	8B-yL	-ba-	8dL	.	.	.	.	.
.	.	.	.	8AJ	.	8cJ	.	.	.	.	.
.	.	.	.	16B-yL	.	16dL	.	.	.	.	.
.	.	.	.	16A	.	16c	.	.	.	.	.
.	.	.	.	16B-y	.	16d	.	.	.	.	.
.	.	.	.	16cJ	.	16eJ	.	.	.	.	.
=8	=8	=8	=8	=8	=8	=8	=8	=8	=8	=8	=8
4B-y	.	1r	.	[2d	.	4f	.	1r	.	8r	.
.	.	.	.	.	.	.	.	.	.	8f	"In
4A	.	.	.	.	.	4f	-te	.	.	8g	voi
.	.	.	.	.	.	.	.	.	.	8a	ser-
2G	.	.	.	8d]L	.	4r	.	.	.	8b-yL	-ba-
.	.	.	.	8cJ	.	.	.	.	.	8aJ	.
.	.	.	.	16dL	.	[4d	Que-	.	.	16b-yL	.
.	.	.	.	16c	.	.	.	.	.	16a	.
.	.	.	.	16d	.	.	.	.	.	16b-y	.
.	.	.	.	16eJ	.	.	.	.	.	16ccJ	.
=9	=9	=9	=9	=9	=9	=9	=9	=9	=9	=9	=9
2F	.	1r	.	4f	.	4d]	.	1r	.	8dd	.
.	.	.	.	.	.	.	.	.	.	8a	-te
.	.	.	.	4f	-te,	8d	-sta	.	.	2a	Que-
.	.	.	.	.	.	8c	do-	.	.	.	.
2F	.	.	.	2r	.	4.c	-len-	.	.	.	.
.	.	.	.	.	.	.	.	.	.	8a	-sta
.	.	.	.	.	.	8B-y	-te hi-	.	.	8g	do-
=10	=10	=10	=10	=10	=10	=10	=10	=10	=10	=10	=10
2G	.	1r	.	1r	.	4B-y	-sto-	1r	.	4.g	-len-
.	.	.	.	.	.	4B-y	-ria,	.	.	.	.
.	.	.	.	.	.	.	.	.	.	8f	-te hi-
2E-X	.	.	.	.	.	8r	.	.	.	4g	-sto-
.	.	.	.	.	.	(8G	a-	.	.	.	.
.	.	.	.	.	.	(8A)L	.	.	.	4g	-ria,
.	.	.	.	.	.	8B-y)J	.	.	.	.	.
=11	=11	=11	=11	=11	=11	=11	=11	=11	=11	=11	=11
2C	.	1r	.	1r	.	(8cL	-mi-	1r	.	8r	.
.	.	.	.	.	.	8d)J	.	.	.	8g	a-
.	.	.	.	.	.	(8B-yL	-che	.	.	8g	-mi-
.	.	.	.	.	.	8c)J	.	.	.	8g	-che
2D	.	.	.	.	.	2A	pian-	.	.	4g	pian-
.	.	.	.	.	.	.	.	.	.	(4f#X	-te:
=12	=12	=12	=12	=12	=12	=12	=12	=12	=12	=12	=12
4GG	.	1r	.	2r	.	2G	-te,	1r	.	2g)	.
2G	.	.	.	.	.	.	.	.	.	.	.
.	.	.	.	4r	.	4r	.	.	.	2r	.
4F#X	.	.	.	4A	In	4d	In	.	.	.	.
=13	=13	=13	=13	=13	=13	=13	=13	=13	=13	=13	=13
4G	.	1r	.	[2B-y	voi	[2d	voi	1r	.	1r	.
4A	.	.	.	.	.	.	.	.	.	.	.
[2B-y	.	.	.	8B-]	.	8d]	.	.	.	.	.
.	.	.	.	(8d	ser-	(8f	ser-	.	.	.	.
.	.	.	.	(8.c)L	.	(8.e-X)L	.	.	.	.	.
.	.	.	.	16B-y)J	.	16d)J	.	.	.	.	.
=14	=14	=14	=14	=14	=14	=14	=14	=14	=14	=14	=14
4B-]	.	1r	.	(8AL	-ba-	(8cL	-ba-	1r	.	1r	.
.	.	.	.	8c)J	.	8e-X)J	.	.	.	.	.
4A	.	.	.	(8.B-yL	-te	(8.dL	-te	.	.	.	.
.	.	.	.	16A)J	.	16c)J	.	.	.	.	.
2G	.	.	.	4G	.	4B-y	.	.	.	.	.
.	.	.	.	[4B-y	Que-	[4d	Que-	.	.	.	.
=15	=15	=15	=15	=15	=15	=15	=15	=15	=15	=15	=15
2F	.	1r	.	4B-]	.	4d]	.	1r	.	1r	.
.	.	.	.	8A	-sta	8c	-sta	.	.	.	.
.	.	.	.	8G	do-	8B-y	do-	.	.	.	.
2D	.	.	.	(8AL	-len-	(8cL	-len-	.	.	.	.
.	.	.	.	8G)J	.	8B-y)J	.	.	.	.	.
.	.	.	.	(8AL	-te hi-	(8cL	-te hi-	.	.	.	.
.	.	.	.	8F)J	.	8A)J	.	.	.	.	.
=16	=16	=16	=16	=16	=16	=16	=16	=16	=16	=16	=16
2G	.	1r	.	4.G	-sto-	(8B-yL	-sto-	1r	.	1r	.
.	.	.	.	.	.	8G)J	.	.	.	.	.
.	.	.	.	.	.	(8AL	-ria, a-	.	.	.	.
.	.	.	.	(8G	-ria, a-	8B-y)J	.	.	.	.	.
2C	.	.	.	(8A)L	.	4c	.	.	.	.	.
.	.	.	.	8B-y)J	.	.	.	.	.	.	.
.	.	.	.	[4c	-mi-	8G	-mi-	.	.	.	.
.	.	.	.	.	.	8A	-che	.	.	.	.
=17	=17	=17	=17	=17	=17	=17	=17	=17	=17	=17	=17
1D	.	1r	.	4c]	.	4F#X	pian-	1r	.	1r	.
.	.	.	.	(8B-yL	-che	2G	.	.	.	.	.
.	.	.	.	8c)J	.	.	.	.	.	.	.
.	.	.	.	2A	pian-	.	.	.	.	.	.
.	.	.	.	.	.	4F#X	.	.	.	.	.
=18	=18	=18	=18	=18	=18	=18	=18	=18	=18	=18	=18
1GG	.	1r	.	1G	-te.	1G	-te.	1r	.	1r	.
=19||	=19||	=19||	=19||	=19||	=19||	=19||	=19||	=19||	=19||	=19||	=19||
!!LO:TX:a:t=[Quinta parte.]
2.B-y	.	1r	.	8r	.	1r	.	1r	.	1r	.
.	.	.	.	8B-y	Per-	.	.	.	.	.	.
.	.	.	.	8B-y	-ché	.	.	.	.	.	.
.	.	.	.	8B-y	se	.	.	.	.	.	.
.	.	.	.	[2B-y	fia	.	.	.	.	.	.
4A	.	.	.	.	.	.	.	.	.	.	.
=20	=20	=20	=20	=20	=20	=20	=20	=20	=20	=20	=20
1G	.	1r	.	8B-]	.	1r	.	1r	.	1r	.
.	.	.	.	8B-y	ch'a	.	.	.	.	.	.
.	.	.	.	8B-y	le	.	.	.	.	.	.
.	.	.	.	8B-y	vo-	.	.	.	.	.	.
.	.	.	.	4.B-y	-str'om-	.	.	.	.	.	.
.	.	.	.	8A	-bre	.	.	.	.	.	.
=21	=21	=21	=21	=21	=21	=21	=21	=21	=21	=21	=21
2F	.	1r	.	4c	gra-	1r	.	1r	.	1r	.
.	.	.	.	4c	-te	.	.	.	.	.	.
2F	6	.	.	8r	.	.	.	.	.	.	.
.	.	.	.	8d	Già	.	.	.	.	.	.
.	.	.	.	8d	mai	.	.	.	.	.	.
.	.	.	.	8d	sog-	.	.	.	.	.	.
=22	=22	=22	=22	=22	=22	=22	=22	=22	=22	=22	=22
2G	.	1r	.	8.d	-gior-	1r	.	1r	.	1r	.
.	.	.	.	16d	-ni al-	.	.	.	.	.	.
.	.	.	.	8d	-cun	.	.	.	.	.	.
.	.	.	.	8d	fe-	.	.	.	.	.	.
2F	.	.	.	(8dL	-del	.	.	.	.	.	.
.	.	.	.	8c)J	.	.	.	.	.	.	.
.	.	.	.	(8B-yL	A-	.	.	.	.	.	.
.	.	.	.	8A)J	.	.	.	.	.	.	.
=23	=23	=23	=23	=23	=23	=23	=23	=23	=23	=23	=23
1E-X	.	1r	.	[2B-y	-man-	1r	.	1r	.	1r	.
.	.	.	.	8B-]L	.	.	.	.	.	.	.
.	.	.	.	16A	.	.	.	.	.	.	.
.	.	.	.	16B-yJ	.	.	.	.	.	.	.
.	.	.	.	4c	.	.	.	.	.	.	.
=24	=24	=24	=24	=24	=24	=24	=24	=24	=24	=24	=24
2.D	#	1r	.	2A	-te,	1r	.	1r	.	1r	.
.	.	.	.	4r	.	.	.	.	.	.	.
4E-X	5	.	.	4B-y	Sen-	.	.	.	.	.	.
=25	=25	=25	=25	=25	=25	=25	=25	=25	=25	=25	=25
4D	.	1r	.	8B-y	-te	1r	.	1r	.	1r	.
.	.	.	.	8B-y	sve-	.	.	.	.	.	.
4C	.	.	.	8.B-y	-gliar-	.	.	.	.	.	.
.	.	.	.	16A	-si al	.	.	.	.	.	.
2BB-y	.	.	.	4B-y	cor	.	.	.	.	.	.
.	.	.	.	[4d	dol-	.	.	.	.	.	.
=26	=26	=26	=26	=26	=26	=26	=26	=26	=26	=26	=26
4B-y	.	1r	.	4d]	.	1r	.	1r	.	1r	.
4A	.	.	.	8e	-ce	.	.	.	.	.	.
.	.	.	.	8f	pie-	.	.	.	.	.	.
2G	.	.	.	4d	-ta-	.	.	.	.	.	.
.	.	.	.	4d	-te	.	.	.	.	.	.
=27	=27	=27	=27	=27	=27	=27	=27	=27	=27	=27	=27
2F	.	1r	.	8r	.	1r	.	1r	.	1r	.
.	.	.	.	8c	De	.	.	.	.	.	.
.	.	.	.	8c	le	.	.	.	.	.	.
.	.	.	.	8c	sven-	.	.	.	.	.	.
2F	.	.	.	8.c	-tu-	.	.	.	.	.	.
.	.	.	.	16c	-re	.	.	.	.	.	.
.	.	.	.	[4d	mie	.	.	.	.	.	.
=28	=28	=28	=28	=28	=28	=28	=28	=28	=28	=28	=28
2G	.	1r	.	4d]	.	1r	.	1r	.	1r	.
.	.	.	.	16e-XL	sì	.	.	.	.	.	.
.	.	.	.	16d	.	.	.	.	.	.	.
.	.	.	.	16c	.	.	.	.	.	.	.
.	.	.	.	16B-yJ	.	.	.	.	.	.	.
2E-X	.	.	.	16cL	va-	.	.	.	.	.	.
.	.	.	.	16B-y	.	.	.	.	.	.	.
.	.	.	.	16A	.	.	.	.	.	.	.
.	.	.	.	16GJ	.	.	.	.	.	.	.
.	.	.	.	16B-yL	-rie	.	.	.	.	.	.
.	.	.	.	16A	.	.	.	.	.	.	.
.	.	.	.	16G	.	.	.	.	.	.	.
.	.	.	.	16FJ	.	.	.	.	.	.	.
=29	=29	=29	=29	=29	=29	=29	=29	=29	=29	=29	=29
2C	.	1r	.	2.G	tan-	1r	.	1r	.	1r	.
2D	.	.	.	.	.	.	.	.	.	.	.
.	.	.	.	(4F#X	-te,	.	.	.	.	.	.
=30	=30	=30	=30	=30	=30	=30	=30	=30	=30	=30	=30
4GG	.	1r	.	2G)	.	1r	.	1r	.	1r	.
2G	.	.	.	.	.	.	.	.	.	.	.
.	.	.	.	4r	.	.	.	.	.	.	.
4F#X	.	.	.	4d	E	.	.	.	.	.	.
=31	=31	=31	=31	=31	=31	=31	=31	=31	=31	=31	=31
4G	.	2r	.	8B-y	di-	1r	.	2r	.	4r	.
.	.	.	.	8B-y	-ca:	.	.	.	.	.	.
4A	.	.	.	4.d	'Ahi,	.	.	.	.	2b-y	'Ahi,
[2B-y	.	4r	.	.	.	.	.	4r	.	.	.
.	.	.	.	8e	.	.	.	.	.	.	.
.	.	[4B-y	'Ahi,	[4f	.	.	.	[4d	'Ahi,	8.a	trop-
.	.	.	.	.	.	.	.	.	.	16g	-po in-
=32	=32	=32	=32	=32	=32	=32	=32	=32	=32	=32	=32
4B-]	.	4B-]	.	4f]	.	4r	.	4d]	.	4f	-giu-
4A	.	8A	trop-	8d	trop-	2f	'Ahi,	8d	trop-	4f	-sta em-
.	.	8A	-po in-	8c	-po in-	.	.	8d	-po in-	.	.
2G	.	4G	-giu-	4c	-giu-	.	.	4e	-giu-	4.g	-pia
.	.	[4G	-sta em-	[4B-y	-sta em-	8.e	trop-	4e	-sta em-	.	.
.	.	.	.	.	.	.	.	.	.	8g	mer-
.	.	.	.	.	.	16d	-po in-	.	.	.	.
=33	=33	=33	=33	=33	=33	=33	=33	=33	=33	=33	=33
2F	.	4G]	.	4B-]	.	4d	-giu-	4.f	-pia	4a	-ce-
.	.	8F	-pia	8A	-pia	2d	-sta em-	.	.	4a	-de
.	.	8D	mer-	8F	mer-	.	.	8f	mer-	.	.
2D	.	8F	-ce-	8A	-ce-	.	.	4f	-ce-	8a	Diè
.	.	8F	-de	8A	-de	.	.	.	.	8a	For-
.	.	8D	Diè	8F	Diè	8.c	-pia	4f	-de	4dd	-tu-
.	.	8D	For-	8F	For-	.	.	.	.	.	.
.	.	.	.	.	.	16B-y	mer-	.	.	.	.
=34	=34	=34	=34	=34	=34	=34	=34	=34	=34	=34	=34
2G	.	4G	-tu-	4B-y	-tu-	8B-y	-ce-	8d	Diè	8dd	-na ed
.	.	.	.	.	.	8B-y	-de	8d	For-	8cc	A-
.	.	8.G	-na ed	8.B-y	-na ed	8G	Diè	4g	-tu-	8b-y	-mor
.	.	.	.	.	.	8G	For-	.	.	8g	a
.	.	16F	A-	16A	A-	.	.	.	.	.	.
4E-X	.	8E-X	-mor	4G	-mor	4c	-tu-	8.g	-na ed	4.g	sì
.	.	8C	a	.	.	.	.	.	.	.	.
.	.	.	.	.	.	.	.	16f	A-	.	.
4C	.	8C	sì	4G	a	8.c	-na ed	4e-X	-mor	.	.
.	.	8C	gran	.	.	.	.	.	.	8a	gran
.	.	.	.	.	.	16B-y	A-	.	.	.	.
=35	=35	=35	=35	=35	=35	=35	=35	=35	=35	=35	=35
1D	.	1D	fe-	8F#X	sì	8A	-mor	8r	.	4a	fe-
.	.	.	.	8F#i	gran	8A	a	8d	a	.	.
.	.	.	.	2G	fe-	8A	sì	8d	sì	16b-yL	.
.	.	.	.	.	.	.	.	.	.	16a	.
.	.	.	.	.	.	8G	gran	8d	gran	16b-y	.
.	.	.	.	.	.	.	.	.	.	16ccJ	.
.	.	.	.	.	.	2A	fe-	2d	fe-	2a	.
.	.	.	.	4F#X	.	.	.	.	.	.	.
=36	=36	=36	=36	=36	=36	=36	=36	=36	=36	=36	=36
1GGl	.	1GGl	-de!'	1Gl	-de!'	1BnXl	-de!'	1dl	-de!'	1gl	-de!'
==	==	==	==	==	==	==	==	==	==	==	==
*-	*-	*-	*-	*-	*-	*-	*-	*-	*-	*-	*-
!!!system-decoration: [*]
!!!RDF**kern: i = editorial accidental
!!!RDF**kern: l = terminal long
!!!ENC: Emiliano Ricciardi
!!!END:
!!!EED: Ricciardi, Emiliano
!!!EEV: 2020/08/08
!!!YEC: Copyright 2018 Emiliano Ricciardi, All Rights Reserved
!!!ONB: Translated from MusicXML on 2020/08/08
!!@@BEGIN:	VERSEDATA
!!@CATALOGNUM:	Tsg07020
!!@LAST_MODIFIED: 2020/07/12
!!@TITLE:		Indi dicea piangendo: in voi serbate
!!@CANTO:		VII
!!@OTTAVA:	20
!!@MANUSRC:	G-Al, G-Au, G-Br<sub>1</sub>, G-Br<sub>2</sub>, G-Es<sub>1</sub>, G-Es<sub>2</sub>, G-Es<sub>3</sub>, G-F, G-Fr, G-Fr<sub>1</sub>, G-Fr<sub>2</sub>, G-Mc<sub>1</sub>, G-Mg, G-Mr, G-Mt, G-N
!!@PRINTSRC:	G-1580CM, G-1581B, G-1581CV, G-1581R, G-1581MR, G-1581P, G-1581V, G-1581V<sub>bis</sub>, G-1582C, G-1582M, G-1582MC, G-1582P, G-1582SC, G-1582SC<sub>bis</sub>, G-1583S, G-1584O, G-1584S, G-1585C, G-1585S, G-1588S, G-1589S, G-1590B, G-1590S, G-1592S, G-1593S, G-1594C, G-1595C, G-1597C, G-1598C, G-1599C, G-1600C, G-1600S, G-1601C, G-1601R, G-1602C, G-1604C, G-1604Cl, G-1604F, G-1604P, G-1606B, G-1606B<sub>bis</sub>, G-1606L, G-1607ZR, G-1608DP, G-1609GC, G-1610M, G-1611S, G-1611V, G-1612P, G-1613M, G-1613P, G-1613V, G-1615P, G-1616M, G-1617P, G-1619B, G-1619V, G-1620M, G-1620S, G-1621R, G-1624I, G-1624MT, G-1625C, G-1625S, G-1625SS, G-1626C, G-1626Co, G-1627M, G-1628T, G-1628Tu, G-1630L, G-1630T, G-1632FT, G-1639CF, G-1642M, G-1643I, G-1644P, G-1644S
!!@@BEGIN:	VERSES
!!@ABOUTIT:
!!@ABOUTEN:
!!@EDITOR:	Angelo Solerti
!!@EDITION_TITLE: Gerusalemme liberata. Poema eroico di Torquato Tasso. Edizione critica sui manoscritti e le prime stampe.
!!@EDITION_LOC:	Florence
!!@EDITION_PUB:	G. Barbera
!!@EDITION_DATE:  1895
!!@EDITION_VOL:	2
!!@EDITION_PAGE:  260
!!@TRANSLATOR:	Emiliano Ricciardi and Amyrose McCue Gill
!!@VERSE:
!!	Indi dicea piangendo: "In voi serbate
!!	Questa dolente istoria, amiche piante;
!!	Perché, se fia ch’a le vostr’ombre grate
!!	Giammai soggiorni alcun fedele amante,
!!	Senta svegliarsi al cor dolce pietate
!!	De le sventure mie sì varie e tante;
!!	E dica: 'Ah troppo ingiusta empia mercede
!!	Diè fortuna ed amore a sì gran fede!'"
!!@MVERSE_DATE:
!!@MVERSE:
!!	In||di di|cea|| pian|gen||do:_"In voi ser|ba||te	=a++
!!	Que||sta do|len||te_i|sto||ria,_a|mi||che pian||te;	=b
!!	Per|ché||, se fia ch’a le vo||str’om||bre gra||te	=a (_ when there is ’?)
!!	Giam|mai|| sog|gior||ni_al|cun|| fe|de||le_a|man||te,	=b
!!	Sen||ta sve|gliar||si_al cor dol||ce pie|ta||te		=a++
!!	De le sven|tu||re mie sì va||rie_e tan||te;		=b
!!	E di||ca:_'Ah trop||po_in|giu||sta_em||pia mer|ce||de	=c++ (S line 7, V line 8)
!!	Diè for|tu||na_ed a|mo||re_a sì gran fe||de!'"		=c
!!@TVERSE:
!!	Then she said, weeping: "In you [is] preserved
!!	This sorrowful tale, tree friends;
!!	For, if it should be that in your welcome shadows
!!	Ever abides any faithful lover,
!!	May he feel awakening in his heart sweet compassion
!!	For my misfortunes—so varied and so many—
!!	And may he say: 'Ah, too unjust, wicked! Mercy
!!	Should grant fortune and love to such great faith.'"
!!@@END:		VERSES
!!@OTHER_CRIT_ED:  Torquato Tasso, <i>Gerusalemme liberata</i>, ed. Lanfranco Caretti, 2 vols. (Bari: Laterza, 1967).
!!@ATTRIBUTION_ABOUT:
!!@DATING:	mid-1560s through 1570s
!!@DEDICATEE:	Duke Alfonso II d'Este
!!@COMMENTARY:
!!@@END:		VERSEDATA
!!@@BEGIN: SETTING
!!@CATALOGNUM:	Tsg07020d
!!@CANTO:		VII
!!@OTTAVA:	20
!!@TITLE:		Indi dicea piangendo: "In voi serbate
!!@SETTINGTITLE: E dicea lagrimando: "In voi serbate
!!@COMPOSER:	Ghizzolo, Giovanni
!!@PARTS:		
!!@PRINCEPSTITLE:	ll terzo libro de madrigali a cinque voci, in parte ancor concertati co 'l clavicembalo. Opera decimaottava
!!@PRINCEPSLOC:	Venice
!!@NORMLOC:	Venice
!!@NORMPUB:	Alessandro Vincenti
!!@NORMPUBSHORT:	Vincenti
!!@PRINCEPSPUB:	
!!@PRINCEPSYEAR:	1621
!!@PRINCEPSRISM:	G 1807
!!@OVOICES:	5+bc
!!@EXTANTVOICES:	5+bc
!!@OMENSURATION:	C
!!@OCLEFS:	C1,C3,C4,C4,F4,F4
!!@OTIME:		
!!@OKEYSIG:	b-
!!@FINAL:	(G)G
!!@TIMPEDITOR:	Ricciardi, Emiliano
!!@REPRINTS:	
!!@@END: SETTING
